src/main/webapp/resources/P.svg

<svg width="37" height="47" viewBox="0 0 37 47" fill="none" xmlns="http://www.w3.org/2000/svg">
<path d="M0.647727 47V0.454544H19.875C23.3598 0.454544 26.3674 1.13636 28.8977 2.5C31.4432 3.84848 33.4053 5.73485 34.7841 8.15909C36.1629 10.5682 36.8523 13.3712 36.8523 16.5682C36.8523 19.7803 36.1477 22.5909 34.7386 25C33.3447 27.3939 31.3523 29.25 28.7614 30.5682C26.1705 31.8864 23.0947 32.5455 19.5341 32.5455H7.67045V23.6818H17.4432C19.1402 23.6818 20.5568 23.3864 21.6932 22.7955C22.8447 22.2045 23.7159 21.3788 24.3068 20.3182C24.8977 19.2424 25.1932 17.9924 25.1932 16.5682C25.1932 15.1288 24.8977 13.8864 24.3068 12.8409C23.7159 11.7803 22.8447 10.9621 21.6932 10.3864C20.5417 9.81061 19.125 9.52273 17.4432 9.52273H11.8977V47H0.647727Z" fill="black"/>
</svg>

<svg width="37" height="47" viewBox="0 0 37 47" fill="none" xmlns="http://www.w3.org/2000/svg"><path d="M.648 47V.455h19.227c3.485 0 6.492.681 9.023 2.045 2.545 1.348 4.507 3.235 5.886 5.66 1.379 2.408 2.068 5.211 2.068 8.408 0 3.212-.704 6.023-2.113 8.432-1.394 2.394-3.387 4.25-5.978 5.568-2.59 1.318-5.666 1.977-9.227 1.977H7.67v-8.863h9.773c1.697 0 3.114-.296 4.25-.886 1.152-.591 2.023-1.417 2.614-2.478.59-1.076.886-2.326.886-3.75 0-1.44-.295-2.682-.886-3.727-.591-1.06-1.462-1.879-2.614-2.455-1.151-.575-2.568-.863-4.25-.863h-5.545V47H.648Z" fill="#4a4a4a"/></svg>
